X:1
T:Steal Away
M:4/4
L:1/4
K:F
 F3/2 F/2 F2| A3/2 A/2 A2| c3/2 c/2 c3/2 d/2| G A3| F3/2 F/2 F2| d- d3.99999962500005/11.9999985000002 c3.99999962500005/11.9999985000002 A3.99999962500005/11.9999985000002 c3/2 F/2|\
 F F A3/2 A/2| G F3| d2 d3/2- c/2| d c2 z/2 A/2| c3/2 A/2 c3/2 A/2|\
 c A2 z/2 F/2| A/2 c3/2 c3/2 c/2| d/2c/2 A c3/2 F/2| F F A3/2 A/2|\
 G F3|
